X:374
T: Liebchen, ffne mir das Fenster (4-73)
N: P0644
O: Lothringen
S: PINCK, Louis: Verklingende Weisen Bd 4, Kassel 1939]
R: Liebe, Fenstergang]
M: 2/4
L: 1/16
K: F
C2C2 | F4F4A2C2 | F4F4
A2c2 | f4f4 | G8
c2d2 | B2A2G4c2c2 | A2G2F4
F2A2 | G4B2cdc | c4z4
f2f2 | e2B2B4d2d2 | c2A2F4
c2c2 | B4G8 | G8

